X:1
T:Jubilate - Lutz
T:#
%%score { 1 | 2 } 3 4 { ( 5 6 ) | ( 7 8 ) }
L:1/8
Q:1/4=108
M:2/2
K:C
V:1 treble nm="Soprano I" snm="S1"
V:2 treble 
V:3 treble nm="Tenor" snm="T"
V:4 treble nm="Bass" snm="B"
V:5 treble nm="Organ"
V:6 treble 
V:7 bass 
V:8 bass 
V:1
"^Jubilate""^W. Meyer Lutz\n(1829-1903)"!mf!"^Unison all voices""^moderato" E2 E2 | E4 E4 | %2
w: Ju- bi-|la- te|
!<(! F4!<)! F4 | (A4 G2) D2 | F4 E2 E2 | (E2 A2) (B2 c2) | B3 B B4 | (B2 A2 G2) ^F2 | %8
w: De- o|o\- * mnis|ter- ra: ser-|vi\- * te *|Do- mi- no|in * * lae-|
[M:2/2] !>!^F3 G E2 E2 | E4 E4 |!<(! F4!<)! F4 | (A4 G2) D2 | F4 E2 E2 | E2 A2 B2 c2 | d4 d2 d2 | %15
w: ti- ti- a: in-|tra- te|in con-|spe\- * ctu|e- jus in|e- xul- ta- ti-|o- ne, in|
 d2 c2 B2 A2 | (A2 B2) G4 |[M:2/2] (B4 A2) G2 | G3 c c4 | B4 A2 G2 | f4 e4 | e2 d2 c2 d2 | e4 B4 | %23
w: e- xul- ta- ti-|o\- * ne:|Qui\- * a|Do- mi- nus|i- pse est|De- us,|ju- bi- la- te|De- o|
 e2 d2 c2 d2 | e4 E2 z2 | e2!<(! c2 B3!<)! A |!>(! (c4!>)! B2) z2 | e2!<(! c2 (B2!<)! A2) | %28
w: u- ni- ver- sa|ter- ra:|psal- mum di- ci-|te *|no- mi- ni *|
!>(! (c4!>)! B2) z2 | (f2 d2 c2 _B2) | A2 c2 e2 c2 | B8 | A6 z2 | z8 | z8 | z8 | z8 | z8 | z8 | %39
w: e- jus:|ve\- * * *|ni- te, et au-|di-|te.|||||||
 z8 | z8 | z8 | z4!f! B2 B2 | (c4 e4) | d6 z2 | z8 | z4 ^G2 G2 | A4 c4 | B4 A4 | G8- | %50
w: |||Ju- bi-|la\- *|te||ju- bi-|la- te|Do- mi-|no,|
 G2 z2!mf! G2 G2 |[M:2/2]"^Unison all voices" E4!<(! E4!<)! | F4 F4 | (A4 G2) D2 | !>!F4 E2 E2 | %55
w: * ju- bi-|la- te|De- o|o\- * mnis|ter- ra: ser-|
!<(! (E2 A2) (B2!<)! c2) | B3 B B4 | (B2 A2 G2) ^F2 | ^F3 G E2 E2 | E4 E4 | F4 F4 | (A4 G2) D2 | %62
w: vi\- * te *|Do- mi- no|in * * lae-|ti- ti- a: in-|tra- te|in con-|spe\- * ctu|
 F4 E2 E2 | E2 A2 c2 d2 | e4 e2 e2 |[M:2/2] e2 d2 c2 A2 | G8 | C2 z2 z4 | z4 B3 B | c4 e4 | %70
w: e- jus in|e- xul- ta- ti-|o- ne, in|e- xul- ta- ti-|o-|ne.|Ju- bi-|la- te|
 d4 G2 z2 | z8 | z4 B2 B2 | c4 e4 | !fermata!g8[Q:1/4=72] | c8 |] %76
w: De- o,||ju- bi-|la- te|De-|o.|
V:2
 x4 | x8 | x8 | x8 | x8 | x8 | x8 | x8 |[M:2/2] x8 | x8 | x8 | x8 | x8 | x8 | x8 | x8 | x8 | %17
w: |||||||||||||||||
[M:2/2][K:treble] F6 F2 | E3 E E4 | F4 F2 F2 | B4 c4 | A2 A2 A2 A2 | ^G4 G4 | z8 | %24
w: Qui- a|Do- mi- nus|i- pse est|De- us,|ju- bi- la- te|De- o||
 z2 (E2 ^F2) ^G2 | A4 E4 | F6 z2 | E2 E2 E4 | F4 F2 z2 | F8 | E2 A2 c2 A2 | (A4 ^G4) | A6 z2 | z8 | %34
w: psal\- * mum|di- ci-|te|no- mi- ni|e- jus:|ve-|ni- te, et au-|di\- *|te.||
 z8 | z8 | z8 | z8 | z8 | z8 | z8 | z8 | z4!f! G2 G2 | G8 | G6 z2 | z8 | z4 E2 E2 | E6 ^F2 | %48
w: ||||||||Ju- bi-|la-|te||ju- bi-|la- te|
 G6 ^F2 | G8- | G2 z2!mf! G2 G2 |[M:2/2] x8 | x8 | x8 | x8 | x8 | x8 | x8 | x8 | x8 | x8 | x8 | %62
w: Do- mi-|no,|* ju- bi-||||||||||||
 x8 | x8 | x8 |[M:2/2] e2 d2 c2 A2 | G8 | C2 z2 z4 | z4 G3 G | G4 G4 | G4 G2 z2 | z8 | z4 G2 G2 | %73
w: |||e- xul- ta- ti-|o-|ne.|Ju- bi-|la- te|De- o,||ju- bi-|
 G4 c4 | (c4 !fermata!B4) | c8 |] %76
w: la- te|De\- *|o.|
V:3
 z4 | z8 | z8 | z8 | z8 | z8 | z8 | z8 |[M:2/2] z8 | z8 | z8 | z8 | z8 | z8 | z8 | z8 | z8 | %17
w: |||||||||||||||||
[M:2/2][K:treble-8] (d4 c2) B2 | c3 c c4 | d4 d2 d2 | d4 c4 | c2 B2 A2 A2 | B4 e4 | A2 A2 A2 A2 | %24
w: Qui\- * a|Do- mi- nus|i- pse est|De- us,|ju- bi- la- te|De- o|u- ni- ver- sa|
 ^G4 E2 z2 | z8 | z2!<(! (E2 F2)!<)! G2 |!>(! A3 A!>)! E2 z2 | z2!<(! E2 F2!<)! G2 | A2 _B2 c2 d2 | %30
w: ter- ra:||psal\- * mum|di- ci- te|ve- ni- te,|et au- di- te|
 c6 e2 | (f4 e3 d) | c6 z2 | e2 c2 B2 A2 | c4 B4 | e2 c2 B2 A2 | c4 B4 | g2 e2 c2 _B2 | %38
w: et au-|di\- * *|te.|Et nar- ra- bo|vo- bis,|o- mnes qui ti-|me- tis|De- um, quan- ta|
 A2 f2 ff d2 | c>c e2 d4 | c4 z4 | z8 | z4!f! d2 d2 | c8 | B6 z2 | z8 | z4 B2 B2 | A6 d2 | d4 c4 | %49
w: fe- cit Do- mi- nus|a- ni- mae me-|ae.||Ju- bi-|la-|te||ju- bi-|la- te|Do- mi-|
 B8- | B2 z2!mf! G2 G2 |[M:2/2] z8 | z8 | z8 | z8 | z8 | z8 | z8 |[M:2/2] z8 | z8 | z8 | z8 | z8 | %63
w: no,|* ju- bi-|||||||||||||
 z8 | z8 |[M:2/2][K:treble-8] e2 d2 c2 A2 | G8 | c2 z2 z4 | z4 d3 d | c4 c4 | B4 B2 z2 | z8 | %72
w: ||e- xul- ta- ti-|o-|ne.|Ju- bi-|la- te|De- o,||
 z4 d2 d2 | c4 c4 | !fermata!d8 | e8 |] %76
w: ju- bi-|la- te|De-|o.|
V:4
 z4 | z8 | z8 | z8 | z8 | z8 | z8 | z8 |[M:2/2] z8 | z8 | z8 | z8 | z8 | z8 | z8 | z8 | z8 | %17
w: |||||||||||||||||
[M:2/2][K:bass] G,6 G,2 | C3 C C4 | G,4 C2 B,2 | ^G,4 A,4 | F,2 F,2 F,2 F,2 | E,4 E,4 | %23
w: Qui- a|Do- mi- nus|i- pse est|De- us,|ju- bi- la- te|De- o|
 F,2 F,2 F,2 F,2 | E,4 E,2 z2 | C,2 C,2 C,3 C, | D,6 z2 | C,2 C,2 C,4 | D,4 D,2 z2 | D,8 | %30
w: u- ni- ver- sa|ter- ra:|psal- mum di- ci-|te|no- mi- ni|e- jus:|ve-|
 E,2 C,2 A,,2 C,2 | (D,4 E,4) | A,6 z2 | z8 | z8 | z8 | z8 | z8 | z8 | z8 | z8 | z8 | %42
w: ni- te, et au-|di\- *|te.||||||||||
 z4!f! G,2 F,2 | (E,4 C,4) | G,6 z2 | z8 | z4 E,2 D,2 | C,4 A,,4 | D,4 D,4 | G,8- | %50
w: Ju- bi-|la\- *|te||ju- bi-|la- te|Do- mi-|no,|
 G,2 z2 G,2 G,2 |[M:2/2] z8 | z8 | z8 | z8 | z8 | z8 | z8 |[M:2/2] z8 | z8 | z8 | z8 | z8 | z8 | %64
w: * ju- bi-||||||||||||||
 z8 |[M:2/2] E2 D2 C2 A,2 | G,8 | C,2 z2 z4 | z4 G,3 F, | E,4 C,4 | G,4 G,2 z2 | z8 | z4 G,2 F,2 | %73
w: |e- xul- ta- ti-|o-|ne.|Ju- bi-|la- te|De- o,||ju- bi-|
 E,4 C,4 | !fermata!G,8 | C8 |] %76
w: la- te|De-|o.|
V:5
!mf! E2 E2 | [G,CE]8 | [G,B,F]8 | [A,CA]4 [G,DG]2 [B,D]2 | [G,F]4- [G,CE]2 [^G,DE]2 | %5
!<(! [A,CE]2 z2 z2!<)! [CEA]2 | [B,EG]6 z2 | z4 [B,^D]4 |[M:2/2] ^F3 G E2 E2 | E4 E4 | %10
!<(! F4!<)! F4 | ([A,A]4 [G,G]2) D2 | (!>!F4 E2) [DE]2 | [CE]4 z2 [CGA]2 | [DGB]8 | [A,C^F]8 | %16
 (!>!A2 B2 G2 G2) | (!>![DB]4 [CA]2 [B,G]2) | G3 c c4 | [DFB]4 (!>![CFA]2 !>![B,FG]2) | %20
 ([FBf]4 [Ece])cAc | e2 d2 c2 d2 | e2 B2- B^GEE | e2 d2 c2 d2 | e2 B2- B^GEE | e2!<(! c2 B3!<)! A | %26
!>(! ([Fc]4!>)! [FB]2) z2 | e2!<(! c2 B2!<)! A2 |!>(! ([Fc]4!>)! [FB]2) z2 | f2 d2 c2 _B2 | %30
 [CEA]2 [EAc]2 [Ace]2 [EAc]2 | [B,FAB]2 z2 z2 [B,E^GB]2 | [CEA]4 z4 | z8 | z8 | z8 | C4 B,2 G,2 | %37
 (G2 E2 C2 _B,2) | A,2 F2 [A,F]2 [F,D]2 | [E,C]2 [G,CE]2 D4 | [E,C]2 GG G2 G2 | E2 DC E2 A2 | %42
!f! G8 | z8 | z2 GG G2 G2 | C2 B,A, C2 F2 | E8 | z2 EE E2 [CD^F]2 | [B,DG]2 B2 d2 [D^F]2 | %49
 [DG]2 ^F2 G2 F2 | G2 =F2 D2 G2 | [G,CE]8 |!<(! [G,B,F]8!<)! |!>(! ([A,CA]4!>)! [B,DG]2) [B,D]2 | %54
 [G,DF]4- [G,CE]2 [^G,DE]2 | [A,CE]2 z2 z2 [CEA]2 | [G,EG]6 z2 | z4 [A,B,^D]4 | ^F3 G [G,E]2 E2 | %59
 E4 E4 | F4!<(! F4!<)! | (A4 G2) D2 | (F4 E2) [DE]2 | [CE]2 z2 z2 [GBd]2 | [EGe]4 [E^Ge]4 | %65
 e2 d2 c2 [C_EA]2 | [DG]8 |!ff! C2 DC E2 A2 | G8 | z8 | z2 GG G2 G2 | E2 DC E2 A2 | G4 z2 [DGB]2 | %73
 [CGc]4 [Gce]4 | !fermata![Gdg]8 | [EGc]8 |] %76
V:6
 x4 | x8 | x8 | x8 | D2 B,2 x4 | x8 | x8 | x8 |[M:2/2] A,4 G,2 x2 |[I:staff +1] E,4 E,4 | F,4 F,4 | %11
[I:staff -1] x8 | x8 | x8 | x8 | x8 | x2 x6 | F8 | [CE]8 | x8 | x8 | (A8 | ^G2) x2 x4 | A8 | %24
 ^G2 x2 x4 | E8 | x8 | E8 | x8 | F8 | x8 | x8 | x8 | x8 | x8 | x8 | x8 | G,8 | A,2 x2 x4 | %39
 x4 [A,C]2 [F,B,]2 | x8 | x8 | x8 | x8 | x8 | x8 | x8 | x8 | x8 | x8 | x8 | x8 | x8 | x8 | x8 | %55
 x8 | x8 | x8 | [A,D]4 x4 |[I:staff +1] E,4 E,4 | F,4 F,4 | A,4 G,2[I:staff -1] x2 | %62
[I:staff +1] F,4 E,2 ^G,2 | A,2 x6 | x8 |[I:staff -1] A8 | C4 B,4 | x8 | x8 | x8 | x8 | x8 | x8 | %73
 x8 | c4 B4 | x8 |] %76
V:7
 E,2 E,2 | (C,2 B,,2) .C,2 .G,,2 | (D,2 ^C,2) .D,2 .G,,2 | (F,2 C,2) .B,,2 .G,,2 | %4
 (B,,2 G,,2 C,2 B,,2) | A,,2 z2 z2 A,,2 | B,,2 E,2 G,2 A,2 | B,2 z2 [B,,A,]4 | %8
[M:2/2] ([B,,^D,]4 [E,,E,]2) E,2 | (C,2 B,,2 C,2 G,,2) | D,2 ^C,2 D,2 G,,2 | F,2 C,2 B,,2 G,,2 | %12
 B,,2 G,,2 [C,E,]2 [^G,,E,]2 | [A,,E,]4 z2 !>![E,G,A,]2 | [D,G,B,]2 B,,2 G,,2 B,,2 | D,8 | %16
 ([D,^F,C]4 [G,,G,B,]2) z2 | x8 | x8 | x8 | ([^G,,^G,]4 [A,,A,])CA,C | C2 B,2 A,2 A,2 | %22
 B,2 !>!B,2- B,^G,E,E, | (C2 B,2 A,2 A,2) | B,2 !>!B,2- B,^G,E,E, | A,4 E,2 A,2- | A,4 D2 z2 | %27
 A,4 E,2 A,2- | A,2 E,2 F,2 G,2 | (A,2 _B,2 C2 D2) | E,2 C,2 A,,2 C,2 | D,2 z2 E,2 z2 | %32
 A,,4 z E,^D,E, | E2 C2 B,2 A,2 | (C4 B,2 E,2) | (E2 C2 B,2 A,2) | [D,F,]8 | [E,,C,]8- | %38
 [F,,C,]2 z2 D,,2 F,,2 | G,,2 E,,2 F,,2 G,,2 | [C,,C,]2!ff! G,G, G,2 G,2 | E,2 D,C, E,2 A,2 | G,8 | %43
 z8 | z2 G,G, G,2 G,2 | C,2 B,,A,, C,2 F,2 | E,8 | z2 [C,E,][C,E,] [C,E,]2 [A,,A,]2 | %48
 [G,,G,]2 B,2 D2 [D,A,C]2 | [G,B,]2 ^F,2 G,2 F,2 | G,2 =F,2 D,2 G,2 | C,B,,C,G,, (C,B,,C,G,,) | %52
 (D,^C,D,G,,) (D,C,D,G,,) | F,F,,A,,C, B,,2 G,,2 | B,,G,,A,,B,, C,2 B,,2 | A,,B,,C,A,, D,C,B,,A,, | %56
 B,,E,G,E, B,,G,,E,,G,, | B,,^C,^D,C, B,,A,,^F,,B,, | B,,,B,,C,B,, E,,2 z2 | %59
 C,B,,C,G,, C,B,,C,G,, | D,^C,D,G,, D,C,D,G,, | F,=C,A,,C, B,,2 G,,2 | B,,G,,A,,B,, C,2 B,,2 | %63
 A,,C,E,^G, A,2 [!courtesy!=G,,=G,]2 | [C,C]8 | [F,,F,]6 [^F,,^F,]2 | [G,,G,]8 | E,2 D,C, E,2 A,2 | %68
 G,8 | z8 | z2 G,G, G,2 G,2 | E,2 D,C, E,2 A,2 | G,4 z2 F,2 | E,4 C,4 | !fermata![G,,G,]8 | %75
 [C,G,]8 |] %76
V:8
 x4 | x8 | x8 | x8 | x8 | x8 | x8 | x8 |[M:2/2] x8 | x8 | x8 | x8 | x8 | x8 | x8 | x8 | x8 | G,8 | %18
 C,2 C,2 E,2 C,2 | G,8 | x8 | F,8 | E,2 z2 z4 | F,8 | E,2 z2 z4 | C,8 | D,6 z2 | C,8 | D,6 z2 | %29
 D,8 | x8 | x8 | x8 | [C,E,]8 | [D,F,]6 z2 | [C,E,]8 | z2 (_A,,2 G,,2 F,,2) | x8 | x8 | x8 | x8 | %41
 x8 | x8 | x8 | x8 | x8 | x8 | x8 | x8 | x8 | x8 | x8 | x8 | x8 | x8 | x8 | x8 | x8 | x8 | x8 | %60
 x8 | x8 | x8 | x8 | x8 | x8 | x8 | x8 | x8 | x8 | x8 | x8 | x8 | x8 | x8 | x8 |] %76

